X: 460
P: Longways for as many as will
M: C|
L: 1/8
K: C
c2c2 ABc2 | B2 d4 cB | c2A2 A2^f2 | g6 |]\
g2 |\
a2 f4 f2 | g2 e4 e2 | f2A2 A2d2 | B2G2 G2g2 |\
agf2 f2ef | gfed c2d2 | B2G2 g2e2 | c6 |]

